src/components/MapCanvas/icons/group.svg

<?xml version="1.0" standalone="no"?><!DOCTYPE svg PUBLIC "-//W3C//DTD SVG 1.1//EN" "http://www.w3.org/Graphics/SVG/1.1/DTD/svg11.dtd"><svg width="100%" height="100%" viewBox="0 0 20 40" version="1.1" xmlns="http://www.w3.org/2000/svg" xmlns:xlink="http://www.w3.org/1999/xlink" xml:space="preserve" style="fill-rule:evenodd;clip-rule:evenodd;stroke-linejoin:round;stroke-miterlimit:1.41421;"><g id="Layer 1"><path d="M0.5,0.5l19,0l0,27.294l-13.483,0l-5.517,10.226l0,-37.52Z" style="fill:#f7931e;fill-rule:nonzero;"/><path d="M0,0l0,40l6.315,-11.706l13.685,0l0,-28.294l-20,0ZM1,1l18,0l0,26.294l-12.685,0l-0.596,0l-0.284,0.525l-4.435,8.221l0,-35.04Z" style="fill:#000;fill-rule:nonzero;"/><path d="M6.425,21.004l0,-2.812l4.901,-5.319c0.495,-0.532 0.684,-0.874 0.684,-1.444c0,-0.74 -0.418,-1.254 -1.216,-1.254c-0.569,0 -1.254,0.266 -1.254,1.311l-3.115,0c0,-2.659 2.014,-4.122 4.369,-4.122c2.508,0 4.332,1.539 4.332,4.084c0,1.425 -0.59,2.185 -1.672,3.325l-3.229,3.419l4.901,0l0,2.812l-8.701,0Z" style="fill:#000;fill-rule:nonzero;"/></g></svg>

<svg viewBox="0 0 20 40" height="40px" width="20px" xmlns="http://www.w3.org/2000/svg" fill-rule="evenodd" clip-rule="evenodd" stroke-linejoin="round" stroke-miterlimit="1.414"><g fill-rule="nonzero"><path d="M.5.5h19v27.294H6.017L.5 38.02V.5z" fill="#f7931e"/><path d="M0 0v40l6.315-11.706H20V0H0zm1 1h18v26.294H5.719l-.284.525L1 36.04V1z"/><path d="M6.425 21.004v-2.812l4.901-5.319c.495-.532.684-.874.684-1.444 0-.74-.418-1.254-1.216-1.254-.569 0-1.254.266-1.254 1.311H6.425c0-2.659 2.014-4.122 4.369-4.122 2.508 0 4.332 1.539 4.332 4.084 0 1.425-.59 2.185-1.672 3.325l-3.229 3.419h4.901v2.812H6.425z"/></g></svg>
